X: 13576
T: Flying Home To Shelley
R: reel
M: 4/4
K: Gmajor
"G6"DGdG cGBG|"Am7"DGcG BGAG|"Bm7"DGAG BGAG|"C6"DEGD EDB,C|
"G6"DGdG cGBG|"Am7"DGcG BGAG|"Bm7"DGAG "Am"BGAG|1 "D9"DEFD "G"G2z2:|2 "D9"DEFD "G"GABc||
|:"G6"d3B AGAB|"Am7"c3B AGE2|"C6"e3d "Bm7"BAG2|"Am7"ABdA "D7"BAGB|
"G6"d2dB AGAB|"Am7"cGBG AGE2|"C6"e3d "Am7"BAG2|1 "D7"ABAF "G6"GABc:|2 "D7"ABAF "G6"G4||

